!!!COM:	la Rue, Pierre de
!!!CDT:	~1452///-1518/11/20
!!!OPR:	Missa De Sancto Job
!!!ONM:	1
!!!OTL:	Kyrie
!!!AGN:	Mass; Kyrie
!!!SCT:	Rue1013a
!!!SCA:	Rue1013a
!!!voices-OPR:	4
!!!voices:	4
**kern	**kern	**kern	**kern
*Ivox	*Ivox	*Ivox	*Ivox
*I"Bassus	*I"Tenor	*I"Contratenor	*I"Discantus
*I'B	*I'T	*I'Ct	*I'D
*staff4	*staff3	*staff2	*staff1
*>[A,B,C]	*>[A,B,C]	*>[A,B,C]	*>[A,B,C]
*>A	*>A	*>A	*>A
*clefF4	*clefGv2	*clefGv2	*clefG2
*k[b-]	*k[b-]	*k[b-]	*k[b-]
*M3/1	*M3/1	*M3/1	*M3/1
*met(O)	*met(O)	*met(O)	*met(O)
!!section: Kyrie I
!!!OMD: Kyrie I
=1-	=1-	=1-	=1-
0.r	0.r	0G	0g
.	.	1G	2.b-\
.	.	.	4a/
=2	=2	=2	=2
0.r	0.r	0B-	2g/
.	.	.	1f
.	.	.	2f/
.	.	1G	4g/
.	.	.	4a/
.	.	.	4b-\
.	.	.	4g/
=3	=3	=3	=3
0.r	0.r	1F	2.a/
.	.	.	4b-\
.	.	2F/	4cc\
.	.	.	4a/
.	.	2.G/	2.b-\
.	.	4A/	4a/
.	.	4B-\	2g/
.	.	4G/	.
=4	=4	=4	=4
0.r	0.r	1A	2.f/
.	.	.	4g/
.	.	2A/	4a/
.	.	.	4f/
.	.	2.B-\	2.g/
.	.	4c\	4f/
.	.	4d\	2d/
.	.	4B-\	.
=5	=5	=5	=5
0.r	0.r	2.c\	2.e/
.	.	4B-\	4f/
.	.	2G/	4g/
.	.	.	4e/
.	.	2.A/	2.f/
.	.	4B-\	4e/
.	.	4c\	2c/
.	.	4A/	.
=6	=6	=6	=6
0.r	0.r	2B-\	4d/
.	.	.	4e/
.	.	2F/	4f/
.	.	.	4d/
.	.	4G/	2e/
.	.	4A/	.
.	.	4B-\	1g
.	.	4G/	.
.	.	1A	.
.	.	.	2f#i/
=7	=7	=7	=7
1.G	0G	1G	0g
.	.	1r	.
2.B-\	.	.	.
.	1G	1r	1r
4A\	.	.	.
4G\	.	.	.
4F\	.	.	.
=8	=8	=8	=8
0E-	0B-	1G	0g
.	.	2G/	.
.	.	2.B-\	.
1E-i	1G	.	1g
.	.	4c\	.
.	.	4d\	.
.	.	4e-i\	.
=9	=9	=9	=9
0D	0F	1.f	1a
.	.	.	2b-\
.	.	4e-i\	1a
.	.	4d\	.
1r	2A/	2c\	.
.	2B-\	2d\	4g/
.	.	.	4f/
=10	=10	=10	=10
1.C	0c	0G	2e/
.	.	.	2.cc\
.	.	.	4b-\
2.E\	.	.	2.g/
.	2.B-\	1G	.
4D\	.	.	4a/
4C/	.	.	2b-\
4BB-/	4G/	.	.
=11	=11	=11	=11
2AA/	2A/	2r	2cc\
2GG/	1B-	1G	1dd
2BB-/	.	.	.
2C/	1G	2G/	1cc
1AA	.	2A/	.
.	2F#i/	2c\	2a/
=12	=12	=12	=12
0GG	0.G	4B-\	1.b-
.	.	4G/	.
.	.	2.g\	.
.	.	4f\	.
.	.	4e-i\	1g
.	.	4d\	.
1r	.	2e-\	.
.	.	2d\	4f/
.	.	.	4e/
=13	=13	=13	=13
1.G	1r	1.B-	0d
.	1r	.	.
2.B-\	.	2.d\	.
.	1B-	.	1r
4A\	.	4c\	.
4G\	.	4B-\	.
4F\	.	4A/	.
=14	=14	=14	=14
1E-	1c	1G	1g
0D	0d	1A	2f/
.	.	.	1a
.	.	1F	.
.	.	.	2b-\
=15	=15	=15	=15
0C	1.e-i	0.G	2.cc\
.	.	.	4b-\
.	.	.	2g/
.	2e-i\	.	2cc\
1GG	1d	.	2b-\
.	.	.	2g/
=16	=16	=16	=16
2r	2c\	1r	2a/
2C/	4e-i\	.	2g/
.	4d\	.	.
2AA/	4c\	1r	2a/
.	4B-\	.	.
2BB-/	1B-	.	4g/
.	.	.	4f/
1C	.	1c	4e/
.	.	.	4d/
.	2A/	.	2e/
=17	=17	=17	=17
0BB-	2.B-\	1d	2d/
.	.	.	4b-\
.	4F/	.	4a/
.	2B-\	2d\	4g/
.	.	.	4f/
.	2d\	1f	1b-
1F	1c	.	.
.	.	2f\	2a/
=18	=18	=18	=18
2G\	0B-	1d	2b-\
2.B-\	.	.	2.dd\
.	.	2d\	.
4A\	.	.	4cc\
4G\	.	1e-i	4b-\
4F\	.	.	4a/
1E-	1c	.	1g
.	.	2e-i\	.
=19	=19	=19	=19
2D\	2.d\	1f	2f/
2BB-/	.	.	2.b-\
.	4c\	.	.
1E-i	2B-\	2f\	.
.	.	.	4a/
.	4A/	1d	1g
.	4G/	.	.
1D	1A	.	.
.	.	2d\	2f#i/
=20	=20	=20	=20
0.GGl	0.Gl	2.B-\	0.gl
.	.	4c\	.
.	.	0dl	.
!!LO:LB:i:g=z
=21||	=21||	=21||	=21||
*>B	*>B	*>B	*>B
*clefF4	*clefGv2	*clefGv2	*clefG2
*k[b-]	*k[b-]	*k[b-]	*k[b-]
*M2/1	*M2/1	*M2/1	*M2/1
*met(C|)	*met(C|)	*met(C|)	*met(C|)
!!section: Christe
!!!OMD: Christe
0r	0r	0d	0r
=22	=22	=22	=22
0r	0r	1c	0r
.	.	[1d	.
=23	=23	=23	=23
0r	0r	1d]	0a
.	.	1f	.
=24	=24	=24	=24
0r	0r	1e	1g
.	.	2c\	[1a
.	.	[2d\	.
=25	=25	=25	=25
0r	0r	2d\]	1a]
.	.	4c\	.
.	.	4B-\	.
.	.	1A	1cc
=26	=26	=26	=26
0r	0r	2G/	1b-
.	.	2B-\	.
.	.	2c\	2g/
.	.	[2A/	[2a/
=27	=27	=27	=27
0r	0r	2A/]	2a/]
.	.	1d	4g/
.	.	.	4f/
.	.	.	1e
.	.	2c#i\	.
=28	=28	=28	=28
0r	0r	1d	2d/
.	.	.	2b-\
.	.	2e\	2cc\
.	.	[2f\	[2a/
=29	=29	=29	=29
0r	0r	2f\]	2a/]
.	.	4e\	2.dd\
.	.	4d\	.
.	.	1e	.
.	.	.	4cc\
.	.	.	2cc\
=30	=30	=30	=30
0G	0r	[0d	2dd\
.	.	.	1b-
.	.	.	4a/
.	.	.	4g/
=31	=31	=31	=31
1F	0r	0d]	1a
[1G	.	.	1g
=32	=32	=32	=32
1G]	0d	0r	0r
1B-	.	.	.
=33	=33	=33	=33
1A	1c	0r	0r
2F\	[1d	.	.
[2G\	.	.	.
=34	=34	=34	=34
2G\]	1d]	0r	0r
4F\	.	.	.
4E\	.	.	.
1D	1f	.	.
=35	=35	=35	=35
2C/	1e	0r	0r
2E\	.	.	.
2F\	2c\	.	.
[2D\	[2d\	.	.
=36	=36	=36	=36
2D\]	2d\]	0r	0r
1G	4c\	.	.
.	4B-\	.	.
.	1A	.	.
2F#i\	.	.	.
=37	=37	=37	=37
1G	2G/	0r	0r
.	2B-\	.	.
2E\	2c\	.	.
[2F\	[2A/	.	.
=38	=38	=38	=38
2F\]	2A/]	0r	0r
4E\	1d	.	.
4D\	.	.	.
1E	.	.	.
.	2c#i\	.	.
=39	=39	=39	=39
0D	[0d	1f	1a
.	.	[1f	[1a
=40	=40	=40	=40
1.D	0d_	2f\]	2a/]
.	.	2d\	2f/
.	.	[1d	[1f
2BB-/	.	.	.
=41	=41	=41	=41
0BB-	0d]	2d\]	1f]
.	.	1B-	.
.	.	.	[1b-
.	.	2G/	.
=42	=42	=42	=42
1.E-	[0e-	0G	2b-\]
.	.	.	2g/
.	.	.	[1g
2C/	.	.	.
=43	=43	=43	=43
[0C	0e-_	1.c	1g]
.	.	.	[1cc
.	.	4B-\	.
.	.	4A/	.
=44	=44	=44	=44
0C]	0e-]	1G	2cc\]
.	.	.	4b-\
.	.	.	4a/
.	.	1c	1g
=45	=45	=45	=45
0D	0d	1A	[0f
.	.	1B-	.
=46	=46	=46	=46
1.F	0c	[0A	0f]
4E\	.	.	.
4D\	.	.	.
=47	=47	=47	=47
1C	1.c	0A]	1e
1D	.	.	1f
.	4B-\	.	.
.	4A/	.	.
=48	=48	=48	=48
1E-i	1G	0r	1g
2D\	1A	.	2f/
2C/	.	.	2e/
=49	=49	=49	=49
[0BB-	1B-	1r	0d
.	2A/	1d	.
.	2G/	.	.
=50	=50	=50	=50
0BB-]	1F	1f	0r
.	1G	2e\	.
.	.	2d\	.
=51	=51	=51	=51
[0AA	1A	[0c	1r
.	2G/	.	1a
.	2F/	.	.
=52	=52	=52	=52
0AA]	0E	1c]	1.cc
.	.	1A	.
.	.	.	2b-\
=53	=53	=53	=53
0r	[0A	4A/	2a/
.	.	4B-\	.
.	.	4c\	4g/
.	.	4d\	4f/
.	.	2e\	2e/
.	.	[2f\	2d/
=54	=54	=54	=54
1r	0A]	4f\]	1f
.	.	4e\	.
.	.	1d	.
1AA	.	.	1e
.	.	2c#i\	.
=55	=55	=55	=55
1BB-	1.F	1d	0d
[1D	.	[1f	.
.	2G/	.	.
=56	=56	=56	=56
2D\]	1A	2f\]	0r
2C/	.	2e\	.
2BB-/	1B-	2d\	.
4AA/	.	4c\	.
4GG/	.	4B-\	.
=57	=57	=57	=57
2FF/	2A/	4c\	1r
.	.	4B-\	.
2GG/	1G	4A/	.
.	.	4G/	.
1D	.	1A	1a
.	2F#i/	.	.
=58	=58	=58	=58
0GG	[0G	1G	1b-
.	.	[1B-	[1dd
=59	=59	=59	=59
1.GG	0G]	2B-\]	2dd\]
.	.	2A/	2cc\
.	.	2G/	2b-\
2AA/	.	4F/	4a/
.	.	4E/	4g/
=60	=60	=60	=60
1BB-	1r	1D	2f/
.	.	.	2g/
1C	1A	1E	1a
=61	=61	=61	=61
[0BB-	1B-	1F	1d
.	[1d	2r	[1f
.	.	[2B-\	.
=62	=62	=62	=62
0BB-]	2d\]	2B-\]	2f/]
.	2c\	2c\	4e/
.	.	.	4d/
.	2B-\	2d\	2f/
.	4A/	2e\	2g/
.	4G/	.	.
=63	=63	=63	=63
0r	2F/	2d\	2a/
.	2G/	1g	2b-\
.	1A	.	1cc
.	.	2f#i\	.
=64	=64	=64	=64
1r	[0G	1.g	1.b-
1GG	.	.	.
.	.	2f\	2a/
=65	=65	=65	=65
0C	1G]	2e\	2g/
.	.	2d\	2f/
.	1A	1c	1e
=66	=66	=66	=66
[0BB-l	1B-	1F	[0dl
.	1F	[1B-	.
=67	=67	=67	=67
0BB-_	[0B-l	2B-\]	0d_
.	.	2A/	.
.	.	1G	.
=68	=68	=68	=68
0BB-]	0B-]	0Fl	0d]
!!LO:LB:i:g=z
=69||	=69||	=69||	=69||
*>C	*>C	*>C	*>C
*clefF4	*clefGv2	*clefGv2	*clefG2
*k[b-]	*k[b-]	*k[b-]	*k[b-]
*M3/1	*M3/1	*M3/1	*M3/1
*met(O|)	*met(O|)	*met(O|)	*met(O|)
!!section: Kyrie II
!!!OMD: Kyrie II
0.r	0.r	0.r	0g
.	.	.	1f
=70	=70	=70	=70
0.r	0.r	0d	2d/
.	.	.	2.f/
.	.	.	4g/
.	.	.	4a/
.	.	.	4b-\
.	.	1c	2cc\
.	.	.	[2a/
=71	=71	=71	=71
0.r	0.r	2A/	2a/]
.	.	2.c\	4g/
.	.	.	4f/
.	.	.	4g/
.	.	4d\	4f/
.	.	4e\	4e/
.	.	4f\	4d/
.	.	4g\	2c/
.	.	4e\	.
.	.	[2f\	4d/
.	.	.	4e/
=72	=72	=72	=72
0.r	0.r	4f\]	4f/
.	.	4e\	4g/
.	.	4d\	2.a/
.	.	4c\	.
.	.	2d\	.
.	.	.	4d/
.	.	4c\	1g
.	.	4B-\	.
.	.	1A	.
.	.	.	2f#i/
=73	=73	=73	=73
0.r	0G	2G/	0g
.	.	2.B-\	.
.	.	4c\	.
.	.	4d\	.
.	.	4e\	.
.	1F	2f\	1r
.	.	2c\	.
=74	=74	=74	=74
0D	2D/	1.f	0.r
.	2.F/	.	.
.	4G/	.	.
.	4A/	4e\	.
.	4B-\	4d\	.
1C	2.c\	[1e	.
.	4B-\	.	.
=75	=75	=75	=75
2AA/	4c\	1e]	1r
.	4B-\	.	.
2.C/	4A/	.	.
.	4G/	.	.
.	2A/	1r	1r
4BB-/	.	.	.
4AA/	1G	.	.
4GG/	.	.	.
1AA	.	1c	1a
.	2F#i/	.	.
=76	=76	=76	=76
2GG/	1G	2.B-\	1.b-
1G	.	.	.
.	.	4c\	.
.	1r	2d\	.
2F\	.	2.d\	1.a
2D\	1r	.	.
.	.	4c\	.
2F\	.	2A/	.
=77	=77	=77	=77
2E\	1r	2.c\	1.g
2C/	.	.	.
.	.	4B-\	.
2E\	1r	2G/	.
4D\	.	2B-\	1.f
4C/	.	.	.
1D	1A	2A/	.
.	.	[2d\	.
=78	=78	=78	=78
1GG	1.B-	2d\]	2g/
.	.	2B-\	2.b-\
2r	.	2.d\	.
.	.	.	4a/
2.D\	1.A	.	4f/
.	.	4e\	4g/
.	.	1f	1a
4E\	.	.	.
2F\	.	.	.
=79	=79	=79	=79
2G\	1.G	0B-	2b-\
2.E-\	.	.	1g
4D\	.	.	.
4BB-/	1.F	.	2.dd\
4C/	.	.	.
1D	.	1A	.
.	.	.	4cc\
.	.	.	2a/
=80	=80	=80	=80
1GG	1G	2r	2b-\
.	.	1d	2g/
2r	2r	.	4b-\
.	.	.	4a/
2D\	2F/	2B-\	4g/
.	.	.	4f/
4C/	2G/	1c	1e
4BB-/	.	.	.
2C/	2A/	.	.
=81	=81	=81	=81
2BB-/	2B-\	2r	2d/
2.B-\	1d	4B-\	2f/
.	.	4c\	.
.	.	2d\	2g/
4A\	.	.	.
2G\	2B-\	2e\	1b-
1F	1c	1f	.
.	.	.	2a/
=82	=82	=82	=82
2G\	2B-\	2.d\	1b-
2D\	4F/	.	.
.	4G/	4B-\	.
2F\	2A/	2c\	2r
4E\	1B-	2d\	2b-\
4D\	.	.	.
1C	.	1e-i	1cc
.	2A/	.	.
=83	=83	=83	=83
0BB-	1B-	1.d	0dd
.	2r	.	.
.	2B-\	4c\	.
.	.	4B-\	.
1F	[1c	2A/	2cc\
.	.	2F/	2a/
=84	=84	=84	=84
1r	2c\]	2A/	2cc\
.	1.d	2G/	2.b-\
1BB-	.	2.B-\	.
.	.	.	4a/
.	.	.	4g/
.	.	4A/	4f/
1C	2c\	2G/	1e
.	2A/	[2c\	.
=85	=85	=85	=85
2AA/	2c\	2c\]	2e/
2.BB-/	2.B-\	1d	2d/
.	.	.	2.f/
4C/	4A/	.	.
4D\	4F/	4c\	.
4E\	4G/	4B-\	4e/
2.F\	4A/	1A	4c/
.	4B-\	.	4d/
.	[2c\	.	4e/
4E\	.	.	4f/
=86	=86	=86	=86
2C/	2c\]	1G	2g/
2E\	1c	.	2e/
1D	.	2r	1f
.	2B-\	2d\	.
2.C/	2A/	[1e	2.cc\
.	2G/	.	.
4D\	.	.	4b-\
=87	=87	=87	=87
2E\	2r	2e\]	4a/
.	.	.	4g/
2.F\	4c\	4d\	4f/
.	4B-\	4c\	4e/
.	4A/	[0dl	2a/
4E\	4G/	.	.
2G\	2B-\	.	1g
1D	1A	.	.
.	.	.	2f#i/
=88	=88	=88	=88
0.GGl	0.Gl	0.d]	0.gl
==	==	==	==
*-	*-	*-	*-
!!!RDF**kern: l=long note in original notation
!!!RDF**kern: i=editorial accidental
!!!ENC:	Megan K. Eagen 2013/01/20
!!!END:	2013/01/20/
!!!EED:	Jesse Rodin
!!!EEV:	2013/08/04/
!!!ONB:	Translated from MusicXML and edited on 2013/08/04/ by Craig Sapp
!!muse2ps: T^@{OPR}^u^@{ONM}{. }@{OTL}^C^@{COM}^i2I150v85,85,85,150Q16
